X:1
T:Title
%%score { ( 1 3 ) | ( 2 4 ) }
L:1/8
M:4/4
K:Eb
V:1 treble nm="Grand Piano"
V:3 treble 
V:2 bass 
V:4 bass 
V:1
 z4 z[Q:1/4=94] G_G=G | B6 z2 | D6 z2 | A6 z2 | B6 z2 | e6 z2 | c6 z2 | B6 z2 | %8
[M:11/16] E/-E/-E/-E/-E/-E/-E/-E-<E |[M:3/8] B=AB |[M:4/4] e4 z4 | A6 z2 | d4 z4 | G6 z2 | e4 z4 | %15
 c6 z2 | B4 z4 |[M:5/8] E-E- E3 |] %18
V:2
 z8 | z [E,G,][E,G,][E,G,] .[E,G,]2 z2 | z [B,,F,][B,,F,][B,,F,] .[B,,F,]2 z2 | %3
 z [B,,F,][B,,F,][B,,F,] .[B,,F,]2 z2 | z [E,E][E,E][E,E] .[E,E]2 z2 | %5
 z [E,B,][E,B,][E,C] .[E,B,]2 z2 | z [A,C][A,C][A,D] .[A,E]2 z2 | %7
 z [B,,G,][B,,G,][B,,G,] [B,,F,]CB,A, |[M:11/16] G,[E,G,][E,A,][E,A,][E,G,]3/2 |[M:3/8] z3 | %10
[M:4/4] z [E,B,][E,B,][E,E] [E,E][E,E][E,E][E,E] | [B,DF][B,D][B,D][B,D] .[B,D]2 z2 | %12
 z [B,F][B,F][B,EA] [B,DF][B,DF][K:bass][B,,B,][D,B,] | .[B,E]2 z2 z4 | %14
 z [E,B,][E,B,][E,E] [E,_DE][E,DE][F,DE][G,D] | [A,CE][A,C][A,E][A,E] .[A,E]2 z2 | %16
 z [B,,G,][B,,G,][B,,G,] [B,,F,]CGB,, |[M:5/8] [E,G,B,][E,G,][E,A,] [E,A,][E,G,] |] %18
V:3
 x8 | z EEE EGFE | z B,B,B, B,F=EF | z DDD DBdc | z GGG GB=AB | z GGA GBGE | z AAA Aedc | %7
 z EEE DAGF |[M:11/16] z B,CCB,3/2 |[M:3/8] x3 |[M:4/4] z GG[GB] [Ac][GB][_G=A][=GB] | z FFF FAGA | %12
 z AAc BA[DF][FA] | z EEE EB=AB | z GG[GB] GGFE | z EAA Aedc | z EE[Ec] .[DA]2 z [A,DF] | %17
[M:5/8] z B,C =B,_B, |] %18
V:4
 x8 | x8 | x8 | x8 | x8 | x8 | x8 | x8 |[M:11/16] x11/2 |[M:3/8] x3 |[M:4/4] x8 | x8 | %12
 x6[K:bass] x2 | E,-[E,-B,][E,-C][E,-C] [E,B,]2 z2 | x8 | x8 | x8 |[M:5/8] x5 |] %18

